!!!COM: Claude Goudimel
!!!OMD: Psalm 138: Il faut que de tous mes esprits
**kern	**kern	**kern	**kern
*part4	*part3	*part2	*part1
*staff4	*staff3	*staff2	*staff1
*clefF4	*clefGv2	*clefG2	*clefG2
*k[f#c#]	*k[f#c#]	*k[f#c#]	*k[f#c#]
!!LO:TX:omd:t=
*M4/4	*M4/4	*M4/4	*M4/4
=1	=1	=1	=1
2D	2F#	2A	2d
4BB	4B	4d	4f#
4E	4B	4e	4g
=2	=2	=2	=2
2D	2d	2f#	2a
2D	[2A	2f#	2dd
=3	=3	=3	=3
2AA	4A]	4e	2cc#
.	4e	2a	.
2E	2e	.	2b
.	.	4g#X	.
=4	=4	=4	=4
2AA	2e	2a	2a
2r	2r	2r	2r
=5	=5	=5	=5
2D	2d	2f#	2a
4GG	4d	4g	4b
4AA	4c#	4e	4a
=6	=6	=6	=6
2BB	2B	2d	2f#
2D	2A	2d	2f#
=7	=7	=7	=7
4GG	4B	4d	4g
4D	4A	2d	4f#
2AA	2A	.	2e
.	.	4c#	.
=8	=8	=8	=8
2D	2A	2d	2d
2r	2r	2r	2r
=9	=9	=9	=9
2D	2F#	2A	2d
4BB	4B	4d	4f#
4E	4B	4e	4g
=10	=10	=10	=10
2D	2d	2f#	2a
2D	[2A	2f#	2dd
=11	=11	=11	=11
2AA	4A]	4e	2cc#
.	4e	2a	.
2E	2e	.	2b
.	.	4g#X	.
=12	=12	=12	=12
2AA	2e	2a	2a
2r	2r	2r	2r
=13	=13	=13	=13
2D	2d	2f#	2a
4GG	4d	4g	4b
4AA	4c#	4e	4a
=14	=14	=14	=14
2BB	2B	2d	2f#
2D	2A	2d	2f#
=15	=15	=15	=15
4GG	4B	4d	4g
4D	4A	2d	4f#
2AA	2A	.	2e
.	.	4c#	.
=16	=16	=16	=16
2D	2A	2d	2d
2r	2r	2r	2r
=17	=17	=17	=17
2D	2f#	2a	2dd
4AA	4e	4a	4cc#
4E	4e	4g	4b
=18	=18	=18	=18
4F#	4c#	4f#	4a
4G	4B	2b	4dd
2A	2e	.	2cc#
.	.	[4a	.
=19	=19	=19	=19
2E	2e	4a]	2b
.	.	4g#X	.
2AA	2c#	2a	2a
=20	=20	=20	=20
2r	2r	2r	2r
2AA	2c#	2e	2a
=21	=21	=21	=21
2AA	2A	2c#	2e
2GG	2B	2d	2g
=22	=22	=22	=22
4D	4A	4d	4f#
4AA	4A	4c#	4e
4D	4A	4d	4f#
4E	4G	4B	4g
=23	=23	=23	=23
2F#	4F#	4d	2a
.	2A	4c#	.
2E	.	2e	2b
.	4G#X	.	.
=24	=24	=24	=24
2AA	2A	2c#	2a
2r	2r	2r	2r
=25	=25	=25	=25
2D	2F#	2A	2d
4BB	4F#	4B	4d
4AA	4A	4c#	4e
=26	=26	=26	=26
4D	4A	4d	4f#
4D	4F#	4A	4d
2BB	2B	2d	2f#
=27	=27	=27	=27
2E	2B	2e	2g
2D	2d	2f#	2a
=28	=28	=28	=28
2r	2r	2r	2r
2AA	2c#	2e	2a
=29	=29	=29	=29
2AA	2A	2c#	2e
2GG	2B	2d	2g
=30	=30	=30	=30
4D	4A	4d	4f#
4AA	4cn	4e	4a
4Cn	4c	4e	4g
4D	4A	[4d	4f#
=31	=31	=31	=31
2AA	2A	4d]	2e
.	.	4c#	.
[2D	[2A	[2d	[2d
=32	=32	=32	=32
2D]	2A]	2d]	2d]
2ryy	2ryy	2ryy	2ryy
==	==	==	==
*-	*-	*-	*-
!!!software: music21 v.9.7.1
!!!software: music21 v.8.3.0
!!!RDF**kern: > = above
!!!RDF**kern: < = below
